__todo__/skype.svg

<svg height="256" preserveAspectRatio="xMidYMid" viewBox="0 0 256 256" width="256" xmlns="http://www.w3.org/2000/svg" xmlns:xlink="http://www.w3.org/1999/xlink"><linearGradient id="a" x1="42.172897%" x2="57.827103%" y1=".584112%" y2="99.415888%"><stop offset=".01" stop-color="#00b7f0"/><stop offset=".34" stop-color="#009de5"/><stop offset=".76" stop-color="#0082d9"/><stop offset="1" stop-color="#0078d4"/></linearGradient><linearGradient id="b" x1="6.658879%" x2="93.341122%" y1="75%" y2="25%"><stop offset="0" stop-color="#0078d4"/><stop offset=".37" stop-color="#007ad5"/><stop offset=".57" stop-color="#0082d9"/><stop offset=".74" stop-color="#0090df"/><stop offset=".88" stop-color="#00a3e7"/><stop offset="1" stop-color="#00bcf2"/></linearGradient><radialGradient id="c" cx="48.539454%" cy="50%" r="50.021327%"><stop offset="0"/><stop offset="1" stop-opacity="0"/></radialGradient><linearGradient id="d" x1="30.436391%" x2="80.436391%" y1="16.12426%" y2="102.736686%"><stop offset="0" stop-color="#00b7f0"/><stop offset="1" stop-color="#007cc1"/></linearGradient><linearGradient id="e" x1="45.636095%" x2="54.363905%" y1="99.815089%" y2=".184911%"><stop offset="0" stop-color="#0078d4"/><stop offset="1" stop-color="#00bcf2"/></linearGradient><mask id="f" fill="#fff"><path d="m179.902617 104.187363c-13.568763-.002447-26.88887 3.641444-38.566903 10.550486 19.53506-32.9417937 11.499312-75.2733952-18.74842-98.7649921-30.2477311-23.49159684-73.2510754-20.79899398-100.3322532 6.2821839-27.08117788 27.0811778-29.77378074 70.0845221-6.2821839 100.3322532 23.4915969 30.247732 65.8231984 38.28348 98.7649921 18.74842-17.4905142 29.642685-12.843127 67.344407 11.322376 91.85227s61.79812 29.685139 91.683911 12.613337c29.885791-17.071801 44.541402-52.11793 35.705297-85.382477-8.836104-33.264548-38.95138-56.418128-73.369497-56.4088z" fill="#fff"/></mask><path d="m246.663256 143.906841c.745263-5.227852 1.130362-10.500741 1.152574-15.7814 0-31.7908927-12.628883-62.2797133-35.108439-84.7592692s-52.968376-35.10843888-84.759269-35.10843888c-5.280659.02221252-10.553548.40731118-15.781399 1.15257411-29.5466385-15.9242651-66.0412472-10.57510187-89.775042 13.15869297-23.73379493 23.7337949-29.08295817 60.2284036-13.15869306 89.775042-.74526294 5.227851-1.1303616 10.500741-1.15257412 15.781399 0 66.201107 53.66660098 119.867708 119.86770818 119.867708 5.280659-.022212 10.553548-.407311 15.781399-1.152574 29.546638 15.924265 66.041247 10.575102 89.775042-13.158693s29.082958-60.228403 13.158693-89.775041z" fill="#fff"/><circle cx="75.993627" cy="76.170946" fill="url(#a)" r="75.892573"/><circle cx="179.902617" cy="180.079936" fill="url(#b)" r="75.892573"/><circle cx="125.547018" cy="133.577871" fill="url(#c)" mask="url(#f)" r="141.811601"/><circle cx="127.948122" cy="128.125441" fill="url(#d)" r="119.867708"/><circle cx="127.948122" cy="128.125441" fill="url(#e)" r="119.867708"/><path d="m84.2389651 113.407956c-2.8191342-5.285995-4.2240224-11.210959-4.0783392-17.199952-.1812647-7.5696085 2.4034953-14.9456312 7.2700829-20.7463341 5.1203327-5.7769461 11.6604681-10.1166621 18.9731432-12.5896557 7.943867-2.8030411 16.31224-4.212767 24.736014-4.1669988 5.521609-.0386004 11.037056.3765408 16.490676 1.2412337 3.887903.6516591 7.71385 1.6303897 11.437081 2.9257651 3.381697 1.1678886 6.425754 3.146526 8.865955 5.7628705 1.862914 2.0991649 2.874716 4.8183842 2.837105 7.6247211.137889 2.9716248-.91517 5.8755142-2.925765 8.0680188-1.87933 2.0003247-4.526692 3.0980114-7.270083 3.0144247-1.898367-.0295827-3.77001-.4522119-5.496891-1.2412337-4.176211-1.84981-8.470915-3.4195983-12.855635-4.698956-4.07929-1.0673892-8.284907-1.5744494-12.500996-1.5072123-5.463664-.1829902-10.869313 1.1684222-15.60408 3.9010201-4.059318 2.4668118-6.44144 6.9588149-6.206169 11.7030602-.032 3.0295362 1.112131 5.9534254 3.191744 8.1566784 2.544108 2.624428 5.54948 4.758242 8.865955 6.294828 3.635041 1.773191 8.865954 4.166999 16.313356 7.181423l2.305149.886596c7.032895 2.68028 13.775943 6.066657 20.125717 10.107188 5.059482 3.279289 9.328937 7.639584 12.500996 12.766975 3.118622 5.378505 4.683883 11.516784 4.521637 17.731909.251006 7.613537-1.956186 15.105552-6.294828 21.366951-4.451631 6.022743-10.639104 10.539598-17.731909 12.944294-8.388361 2.991402-17.250551 4.433386-26.154567 4.255659-12.174088.403933-24.286221-1.897372-35.4638188-6.738126-2.8636611-1.288634-5.384354-3.232301-7.3587424-5.674211-1.5537791-2.301111-2.358857-5.02599-2.3051482-7.80204-.1970318-2.961831.9413159-5.856487 3.1030841-7.8907 2.2164525-1.961651 5.1116028-2.979726 8.0680188-2.837106 3.3056319.046973 6.554417.866759 9.4865715 2.393808 3.635042 1.773191 6.472147 3.191744 8.865955 4.078339 2.3733 1.002632 4.83757 1.774572 7.358742 2.305149 3.111125.707472 6.29658 1.034949 9.486572.975255 5.646749.41611 11.268937-1.08314 15.958718-4.255659 3.595274-2.752751 5.615397-7.091048 5.408233-11.6144.085205-3.283138-1.125017-6.467933-3.369063-8.865955-2.891271-2.948742-6.245538-5.404544-9.929869-7.270083-4.344318-2.305148-10.550486-5.053594-18.441186-8.422657-7.089571-2.823606-13.888994-6.327239-20.3030365-10.461827-4.7965996-3.19076-8.9770434-6.727222-11.8803794-11.70306z" fill="#fff"/></svg>

<?xml version="1.0" encoding="UTF-8"?>
<svg width="256px" height="256px" viewBox="0 0 256 256" version="1.1" xmlns="http://www.w3.org/2000/svg" xmlns:xlink="http://www.w3.org/1999/xlink" preserveAspectRatio="xMidYMid">
    <title>Skype</title>
    <defs>
        <linearGradient x1="42.1728972%" y1="0.58411215%" x2="57.8271028%" y2="99.4158879%" id="skypeLinearGradient-1">
            <stop stop-color="#00B7F0" offset="1%"></stop>
            <stop stop-color="#009DE5" offset="34%"></stop>
            <stop stop-color="#0082D9" offset="76%"></stop>
            <stop stop-color="#0078D4" offset="100%"></stop>
        </linearGradient>
        <linearGradient x1="6.6588785%" y1="75%" x2="93.3411215%" y2="25%" id="skypeLinearGradient-2">
            <stop stop-color="#0078D4" offset="0%"></stop>
            <stop stop-color="#007AD5" offset="37%"></stop>
            <stop stop-color="#0082D9" offset="57%"></stop>
            <stop stop-color="#0090DF" offset="74%"></stop>
            <stop stop-color="#00A3E7" offset="88%"></stop>
            <stop stop-color="#00BCF2" offset="100%"></stop>
        </linearGradient>
        <path d="M179.902617,104.187363 C166.333854,104.184916 153.013747,107.828807 141.335714,114.737849 C160.870774,81.7960553 152.835026,39.4644538 122.587294,15.9728569 C92.3395629,-7.51873994 49.3362186,-4.82613708 22.2550408,22.2550408 C-4.82613708,49.3362186 -7.51873994,92.3395629 15.9728569,122.587294 C39.4644538,152.835026 81.7960553,160.870774 114.737849,141.335714 C97.2473348,170.978399 101.894722,208.680121 126.060225,233.187984 C150.225728,257.695847 187.858345,262.873123 217.744136,245.801321 C247.629927,228.72952 262.285538,193.683391 253.449433,160.418844 C244.613329,127.154296 214.498053,104.000716 180.079936,104.010044 L179.902617,104.187363 Z" id="path-3"></path>
        <radialGradient cx="48.5394537%" cy="50%" fx="48.5394537%" fy="50%" r="50.0213274%" id="radialGradient-5">
            <stop stop-color="#000000" offset="0%"></stop>
            <stop stop-color="#000000" stop-opacity="0" offset="100%"></stop>
        </radialGradient>
        <linearGradient x1="30.4363905%" y1="16.1242604%" x2="80.4363905%" y2="102.736686%" id="skypeLinearGradient-6">
            <stop stop-color="#00B7F0" offset="0%"></stop>
            <stop stop-color="#007CC1" offset="100%"></stop>
        </linearGradient>
        <linearGradient x1="45.6360947%" y1="99.8150888%" x2="54.3639053%" y2="0.184911243%" id="skypeLinearGradient-7">
            <stop stop-color="#0078D4" offset="0%"></stop>
            <stop stop-color="#00BCF2" offset="100%"></stop>
        </linearGradient>
    </defs>
    <g>
        <path d="M246.663256,143.906841 C247.408519,138.678989 247.793618,133.4061 247.81583,128.125441 C247.81583,96.3345483 235.186947,65.8457277 212.707391,43.3661718 C190.227835,20.8866159 159.739015,8.25773292 127.948122,8.25773292 C122.667463,8.27994544 117.394574,8.6650441 112.166723,9.41030703 C82.6200845,-6.51395807 46.1254758,-1.16479484 22.391681,22.569 C-1.34211393,46.3027949 -6.69127717,82.7974036 9.23298794,112.344042 C8.487725,117.571893 8.10262634,122.844783 8.08041382,128.125441 C8.08041382,194.326548 61.7470148,247.993149 127.948122,247.993149 C133.228781,247.970937 138.50167,247.585838 143.729521,246.840575 C173.276159,262.76484 209.770768,257.415677 233.504563,233.681882 C257.238358,209.948087 262.587521,173.453479 246.663256,143.906841 L246.663256,143.906841 Z" fill="#FFFFFF"></path>
        <circle fill="url(#skypeLinearGradient-1)" cx="75.9936272" cy="76.1709463" r="75.8925726"></circle>
        <circle fill="url(#skypeLinearGradient-2)" cx="179.902617" cy="180.079936" r="75.8925726"></circle>
        <g>
            <mask id="mask-4" fill="white">
                <use xlink:href="#path-3"></use>
            </mask>
            <circle fill="url(#radialGradient-5)" mask="url(#mask-4)" cx="125.547018" cy="133.577871" r="141.811601"></circle>
        </g>
        <circle fill="url(#skypeLinearGradient-6)" cx="127.948122" cy="128.125441" r="119.867708"></circle>
        <circle fill="url(#skypeLinearGradient-7)" cx="127.948122" cy="128.125441" r="119.867708"></circle>
        <path d="M84.2389651,113.407956 C81.4198309,108.121961 80.0149427,102.196997 80.1606259,96.208004 C79.9793612,88.6383955 82.5641212,81.2623728 87.4307088,75.4616699 C92.5510415,69.6847238 99.0911769,65.3450078 106.403852,62.8720142 C114.347719,60.0689731 122.716092,58.6592472 131.139866,58.7050154 C136.661475,58.666415 142.176922,59.0815562 147.630542,59.9462491 C151.518445,60.5979082 155.344392,61.5766388 159.067623,62.8720142 C162.44932,64.0399028 165.493377,66.0185402 167.933578,68.6348847 C169.796492,70.7340496 170.808294,73.4532689 170.770683,76.2596058 C170.908572,79.2312306 169.855513,82.13512 167.844918,84.3276246 C165.965588,86.3279493 163.318226,87.425636 160.574835,87.3420493 C158.676468,87.3124666 156.804825,86.8898374 155.077944,86.1008156 C150.901733,84.2510056 146.607029,82.6812173 142.222309,81.4018596 C138.143019,80.3344704 133.937402,79.8274102 129.721313,79.8946473 C124.257649,79.7116571 118.852,81.0630695 114.117233,83.7956674 C110.057915,86.2624792 107.675793,90.7544823 107.911064,95.4987276 C107.879064,98.5282638 109.023195,101.452153 111.102808,103.655406 C113.646916,106.279834 116.652288,108.413648 119.968763,109.950234 C123.603804,111.723425 128.834717,114.117233 136.282119,117.131657 L138.587268,118.018253 C145.620163,120.698533 152.363211,124.08491 158.712985,128.125441 C163.772467,131.40473 168.041922,135.765025 171.213981,140.892416 C174.332603,146.270921 175.897864,152.4092 175.735618,158.624325 C175.986624,166.237862 173.779432,173.729877 169.44079,179.991276 C164.989159,186.014019 158.801686,190.530874 151.708881,192.93557 C143.32052,195.926972 134.45833,197.368956 125.554314,197.191229 C113.380226,197.595162 101.268093,195.293857 90.0904952,190.453103 C87.2268341,189.164469 84.7061412,187.220802 82.7317528,184.778892 C81.1779737,182.477781 80.3728958,179.752902 80.4266046,176.976852 C80.2295728,174.015021 81.3679205,171.120365 83.5296887,169.086152 C85.7461412,167.124501 88.6412915,166.106426 91.5977075,166.249046 C94.9033394,166.296019 98.1521245,167.115805 101.084279,168.642854 C104.719321,170.416045 107.556426,171.834598 109.950234,172.721193 C112.323534,173.723825 114.787804,174.495765 117.308976,175.026342 C120.420101,175.733814 123.605556,176.061291 126.795548,176.001597 C132.442297,176.417707 138.064485,174.918457 142.754266,171.745938 C146.34954,168.993187 148.369663,164.65489 148.162499,160.131538 C148.247704,156.8484 147.037482,153.663605 144.793436,151.265583 C141.902165,148.316841 138.547898,145.861039 134.863567,143.9955 C130.519249,141.690352 124.313081,138.941906 116.422381,135.572843 C109.33281,132.749237 102.533387,129.245604 96.1193445,125.111016 C91.3227449,121.920256 87.1423011,118.383794 84.2389651,113.407956 Z" fill="#FFFFFF"></path>
    </g>
</svg>
